public/tools-icons/typescript.svg

<svg xmlns="http://www.w3.org/2000/svg" width="24" height="24" fill="none"><g clip-path="url(#clip0_140_75)"><path fill="#26265a" d="M1.125 0C0.502 0 0 0.502 0 1.125V22.875C0 23.498 0.502 24 1.125 24H22.875C23.498 24 24 23.498 24 22.875V1.125C24 0.502 23.498 0 22.875 0H1.125ZM18.488 9.75C19.1 9.75 19.642 9.787 20.115 9.861C20.5611 9.92784 20.9989 10.0418 21.421 10.201V12.659C21.2184 12.5189 21.0031 12.398 20.778 12.298C20.5458 12.1935 20.3062 12.1066 20.061 12.038C19.5966 11.9086 19.1171 11.8413 18.635 11.838C18.335 11.838 18.062 11.866 17.816 11.924C17.5967 11.9709 17.3864 12.0526 17.193 12.166C17.023 12.27 16.893 12.395 16.8 12.54C16.7065 12.6861 16.6578 12.8565 16.66 13.03C16.66 13.226 16.713 13.403 16.816 13.559C16.92 13.715 17.068 13.863 17.259 14.003C17.45 14.143 17.682 14.279 17.955 14.413C18.228 14.548 18.537 14.687 18.881 14.829C19.351 15.026 19.773 15.236 20.147 15.457C20.521 15.679 20.842 15.93 21.11 16.21C21.378 16.489 21.582 16.808 21.724 17.167C21.866 17.526 21.938 17.943 21.938 18.42C21.938 19.077 21.813 19.63 21.565 20.076C21.3227 20.5159 20.975 20.8887 20.553 21.161C20.0982 21.4494 19.5941 21.6514 19.066 21.757C18.5 21.877 17.903 21.937 17.276 21.937C16.6589 21.9397 16.0429 21.8848 15.436 21.773C14.9109 21.6822 14.4017 21.5161 13.924 21.28V18.65C14.8278 19.4191 15.9743 19.8441 17.161 19.85C17.494 19.85 17.785 19.82 18.033 19.76C18.282 19.7 18.489 19.616 18.656 19.51C18.822 19.402 18.946 19.276 19.029 19.13C19.1207 18.96 19.1625 18.7675 19.1494 18.5748C19.1363 18.3821 19.0689 18.197 18.955 18.041C18.8064 17.8444 18.6247 17.6752 18.418 17.541C18.1617 17.3711 17.8917 17.2226 17.611 17.097C17.2782 16.945 16.9425 16.7997 16.604 16.661C15.686 16.278 15.002 15.809 14.551 15.256C14.101 14.703 13.875 14.034 13.875 13.251C13.875 12.637 13.998 12.11 14.244 11.669C14.49 11.228 14.824 10.865 15.248 10.58C15.6965 10.2841 16.1943 10.0711 16.718 9.951C17.298 9.81426 17.8921 9.74679 18.488 9.75ZM3.375 9.938H12.938V12.104H9.506V21.75H6.789V12.104H3.375V9.938Z"/></g><defs><clipPath id="clip0_140_75"><path fill="#fff" d="M0 0H24V24H0z"/></clipPath></defs></svg>

<svg xmlns="http://www.w3.org/2000/svg" width="24" height="24" fill="none" viewBox="0 0 24 24"><g clip-path="url(#a)"><path fill="#26265a" d="M1.125 0C.502 0 0 .502 0 1.125v21.75C0 23.498.502 24 1.125 24h21.75c.623 0 1.125-.502 1.125-1.125V1.125C24 .502 23.498 0 22.875 0zm17.363 9.75q.918 0 1.627.111c.446.067.884.18 1.306.34v2.458a4 4 0 0 0-.643-.361 5 5 0 0 0-.717-.26 5.5 5.5 0 0 0-1.426-.2q-.45 0-.819.086a2.1 2.1 0 0 0-.623.242q-.254.156-.393.374a.9.9 0 0 0-.14.49q0 .294.156.529.156.234.443.444.286.21.696.41.41.203.926.416.705.296 1.266.628.561.333.963.753.402.418.614.957.213.538.214 1.253 0 .986-.373 1.656c-.242.44-.59.813-1.012 1.085a4.4 4.4 0 0 1-1.487.596q-.85.18-1.79.18a10 10 0 0 1-1.84-.164 5.6 5.6 0 0 1-1.512-.493v-2.63a5.03 5.03 0 0 0 3.237 1.2q.5 0 .872-.09.373-.09.623-.25.249-.162.373-.38a1.02 1.02 0 0 0-.074-1.089 2.1 2.1 0 0 0-.537-.5 5.6 5.6 0 0 0-.807-.444 28 28 0 0 0-1.007-.436q-1.377-.575-2.053-1.405t-.676-2.005q0-.92.369-1.582t1.004-1.089a4.5 4.5 0 0 1 1.47-.629 7.5 7.5 0 0 1 1.77-.201m-15.113.188h9.563v2.166H9.506v9.646H6.789v-9.646H3.375z"/></g><defs><clipPath id="a"><path fill="#fff" d="M0 0h24v24H0z"/></clipPath></defs></svg>
